!!!OTL: EIN KOSAK RITT IN DEN KRIEG
!!!ARE: Europa, Mitteleuropa, Deutschland; Rossiya ?
!!!SCT: F0157
!!!YEM: Copyright 1995, estate of Helmut Schaffrath.
**kern
*ICvox
*Ivox
*M2/4
*k[]
*a:
=1
{8a
8a
8a
8a
=2
8a
8ccn
8b
8a}
=3
{8g#
8g#
8g#
8g#
=4
8g#
8b
8a
8g#}
=5
{8a
8a
8a
8a
=6
8a
8ccn
8b
8a}
=7
{8g#
8ee
8ee
8g#
=8
4a
4r}
=9
{8ccn
8ccn
8ccn
8ccn
=10
8ccn
8ee
8dd
8ccn}
=11
{8b
8b
8b
8b
=12
8b
8dd
8ccn
8b}
=13
{8a
8a
8a
8a
=14
8a
8ccn
8b
8a}
=15
{8g#
8b
16ee
16dd
16ccn
16b
=16
4a
4r}
==
!!!AGN: Kriegs - Lied, national; Liebe
!!!ONB: ESAC (Essen Associative Code) Database: FINK
!!!AMT: simple duple
!!!AIN: vox
!!!EED: Helmut Schaffrath
!!!EEV: 1.0
*-
